images/icons/cal.svg

<svg fill="none" height="24" viewBox="0 0 24 24" width="24" xmlns="http://www.w3.org/2000/svg"><g fill="#fff"><path d="m6.17791 18.7862c-3.52379 0-6.17791-2.789-6.17791-6.2322 0-3.4547 2.5186-6.26665 6.17791-6.26665 1.94259 0 3.28655.59682 4.33689 1.96263l-1.6941 1.41171c-.71151-.75751-1.56987-1.13626-2.64279-1.13626-2.38308 0-3.6932 1.82487-3.6932 4.02857 0 2.2036 1.43435 3.9941 3.6932 3.9941 1.06162 0 1.96519-.3787 2.6767-1.1363l1.67149 1.4691c-1.00513 1.3084-2.383 1.9053-4.34819 1.9053z"/><path d="m17.8222 9.61528h2.2814v8.95232h-2.2814v-1.3084c-.4744.9297-1.265 1.5494-2.7784 1.5494-2.4169 0-4.3482-2.1003-4.3482-4.6827s1.9313-4.68278 4.3482-4.68278c1.5022 0 2.304.61978 2.7784 1.54948zm.0677 4.51062c0-1.4002-.96-2.5595-2.4734-2.5595-1.4569 0-2.4057 1.1707-2.4057 2.5595 0 1.3543.9488 2.5594 2.4057 2.5594 1.5022 0 2.4734-1.1707 2.4734-2.5594z"/><path d="m21.7186 6h2.2814v12.5562h-2.2814z"/></g></svg>

<svg width="24" height="24" viewBox="0 0 24 24" fill="none" xmlns="http://www.w3.org/2000/svg">
<path d="M6.17791 18.7862C2.65412 18.7862 0 15.9972 0 12.554C0 9.0993 2.5186 6.28735 6.17791 6.28735C8.1205 6.28735 9.46446 6.88417 10.5148 8.24998L8.8207 9.66169C8.10919 8.90418 7.25083 8.52543 6.17791 8.52543C3.79483 8.52543 2.48471 10.3503 2.48471 12.554C2.48471 14.7576 3.91906 16.5481 6.17791 16.5481C7.23953 16.5481 8.1431 16.1694 8.85461 15.4118L10.5261 16.8809C9.52097 18.1893 8.1431 18.7862 6.17791 18.7862Z" fill="white"/>
<path d="M17.8222 9.61528H20.1036V18.5676H17.8222V17.2592C17.3478 18.1889 16.5572 18.8086 15.0438 18.8086C12.6269 18.8086 10.6956 16.7083 10.6956 14.1259C10.6956 11.5435 12.6269 9.44312 15.0438 9.44312C16.546 9.44312 17.3478 10.0629 17.8222 10.9926V9.61528ZM17.8899 14.1259C17.8899 12.7257 16.9299 11.5664 15.4165 11.5664C13.9596 11.5664 13.0108 12.7371 13.0108 14.1259C13.0108 15.4802 13.9596 16.6853 15.4165 16.6853C16.9187 16.6853 17.8899 15.5146 17.8899 14.1259Z" fill="white"/>
<path d="M21.7186 6H24V18.5562H21.7186V6Z" fill="white"/>
</svg>
